X:2
T:Polska efter Magnus Olsson
R:polska L1
H:efter Magnus Olsson (1824-1920), Lycke, Arvika
A:V\"armland
Z:id:hn-L1-2
M:3/4
K:D
A2 B2 c2|d2 e2 f2|g>f e>d cB|A>G FE D2|
A2 B2 c2|d2 e2 f2|g>f e>d (3cBc|1 d2 d2 A2:|2 d2 d4||
|:a2 f2 d'2|a2 f2 ef|g>f e>d cB|A>G FE D2|
a2 f2 d'2|a2 f2 ef|g>f e>d (3cBc|1 d2 d2 A2:|2 d2 d4||
